**kern	**silbe	**kern	**silbe	**harmony	**chordsym	**phrase	**timestamp	**leadinstrument
*ICvox	*	*ICvox	*	*M4/4	*M4/4	*	*	*
*E:	*	*E:	*	*E:	*E:	*	*	*
*M4/4	*	*M4/4	*	*	*	*	*	*
*clefF4	*	*clefF4	*	*	*	*	*	*
r;	.	r;	.	1r;	r	.	0	r
=1	=1	=1	=1	=1	=1	=1	=1	=1
*	*	*	*	*>A_intro	*>A_intro	*>A_intro	*>A_intro	*>A_intro
1r	.	1r	.	1B-Mm	B-:sus4(b7) (B- E- F A-)	newline	0.372	r
=2	=2	=2	=2	=2	=2	=2	=2	=2
1r	.	1r	.	1B-Mm	B-:sus4(b7) (B- E- F A-)	.	.	r
=3	=3	=3	=3	=3	=3	=3	=3	=3
1r	.	1r	.	1BMm	B:sus4(b7) (B E F# A)	.	.	r
=4	=4	=4	=4	=4	=4	=4	=4	=4
2r	.	2r	.	1BMm	B:sus4(b7) (B E F# A)	.	.	r
4r	.	4r	.	.	.	.	.	.
8r	.	8r	.	.	.	.	.	.
8e	Whoa	8c#	Whoa	.	.	.	.	.
=5	=5	=5	=5	=5	=5	=5	=5	=5
*	*	*	*	*>B_verse	*>B_verse	*>B_verse	*>B_verse	*>B_verse
4d#	...	4B	...	1EMM	E:maj7 (E G# B D#)	newline	10.805	voice
4r	.	4r	.	.	.	.	.	.
8r	.	8r	.	.	.	.	.	.
8[d#	Oh,	8[B	Oh,	.	.	.	.	.
8.d#]	_	8.B]	_	.	.	.	.	.
16[c#	mer	16[B	mer	.	.	.	.	.
=6	=6	=6	=6	=6	=6	=6	=6	=6
16c#]	_	16B]	_	1EMM	E:maj7 (E G# B D#)	.	.	voice
8A	cy,	8G#	cy,	.	.	.	.	.
16[B	mer	16[G#	mer	.	.	.	.	.
16B]	_	16G#]	_	.	.	.	.	.
8G#	cy	8E	cy	.	.	.	.	.
16[B	me	16[E	me	.	.	.	.	.
4B]	_	4E]	_	.	.	.	.	.
4r	.	4r	.	.	.	.	.	.
=7	=7	=7	=7	=7	=7	=7	=7	=7
4r	.	4r	.	1C#mm	C#:min7 (C# E G# B)	.	.	voice
4r	.	4r	.	.	.	.	.	.
8r	.	8r	.	.	.	.	.	.
8[d#	Oh,	8[B	Oh,	.	.	.	.	.
8.d#]	_	8.B]	_	.	.	.	.	.
16[d#	things	16[B	things	.	.	.	.	.
=8	=8	=8	=8	=8	=8	=8	=8	=8
16d#]	_	16B]	_	1C#mm	C#:min7 (C# E G# B)	.	.	voice
8B	ain't	8G#	ain't	.	.	.	.	.
16[B	what	16[G#	what	.	.	.	.	.
16B]	_	16G#]	_	.	.	.	.	.
8G#	they	8E	they	.	.	.	.	.
16[G#	used	16[E	used	.	.	.	.	.
16G#]	_	16E]	_	.	.	.	.	.
8E	to	8C#	to	.	.	.	.	.
16[E	be	16[C#	be	.	.	.	.	.
16E]	_	16C#]	_	.	.	.	.	.
8.[c#	no,	16r	.	.	.	.	.	.
.	.	16G#	no	.	.	.	.	.
.	.	16[A	_	.	.	.	.	.
=9	=9	=9	=9	=9	=9	=9	=9	=9
8.c#]	_	8.A]	_	1F#mm	F#:min7 (F# A C# E)	newline	21.105	voice
16B	no	16G#	no	.	.	.	.	.
16G#	_	16E	_	.	.	.	.	.
8.r	.	8.r	.	.	.	.	.	.
8r	.	8r	.	.	.	.	.	.
8[c#	Where	8[A	Where	.	.	.	.	.
8c#]	_	8A]	_	.	.	.	.	.
16B	did	16G#	did	.	.	.	.	.
16[G#	all	16[E	all	.	.	.	.	.
=10	=10	=10	=10	=10	=10	=10	=10	=10
16G#]	_	16E]	_	1F#mm	F#:min7 (F# A C# E)	.	.	voice
8A	the	8F#	the	.	.	.	.	.
16[B	blue	16[G#	blue	.	.	.	.	.
8.B]	_	8.G#]	_	.	.	.	.	.
16[c#	skies	16[A	skies	.	.	.	.	.
8.c#]	_	8.A]	_	.	.	.	.	.
16[G#	go?	16[E	go?	.	.	.	.	.
16G#]	_	16E]	_	.	.	.	.	.
8.r	.	8.r	.	.	.	.	.	.
=11	=11	=11	=11	=11	=11	=11	=11	=11
8r	.	8r	.	1BM	B:sus4(b7) (B E F# A)	.	.	voice
8[B	Poi	8[G#	Poi	.	.	.	.	.
8B]	_	8G#]	_	.	.	.	.	.
16A	son	16F#	son	.	.	.	.	.
16[G#	is	16[E	is	.	.	.	.	.
16G#]	_	16E]	_	.	.	.	.	.
8A	the	8F#	the	.	.	.	.	.
16[G#	wind	16[E	wind	.	.	.	.	.
16G#]	_	16E]	_	.	.	.	.	.
8E	that	8C#	that	.	.	.	.	.
16[E	blows	16[C#	blows	.	.	.	.	.
=12	=12	=12	=12	=12	=12	=12	=12	=12
8E]	_	8C#]	_	1BM	B:sus4(b7) (B E F# A)	.	.	voice
8r	.	8r	.	.	.	.	.	.
8E	from	8C#	from	.	.	.	.	.
16F#	the	16D#	the	.	.	.	.	.
16[G#	north	16[E	north	.	.	.	.	.
16G#]	_	16E]	_	.	.	.	.	.
8E	and	8C#	and	.	.	.	.	.
16[E	south	16[C#	south	.	.	.	.	.
16E]	_	16C#]	_	.	.	.	.	.
16F#	and	16D#	and	.	.	.	.	.
8E	east.	8C#	east.	.	.	.	.	.
=13	=13	=13	=13	=13	=13	=13	=13	=13
*	*	*	*	*>B_verse	*>B_verse	*>B_verse	*>B_verse	*>B_verse
4r	.	4r	.	1EMM	E:maj7 (E G# B D#)	newline	31.354	voice
4r	.	16r	.	.	.	.	.	.
.	.	8.[F#	(vocalizing)	.	.	.	.	.
8r	.	2F#]	_	.	.	.	.	.
16e	Whoa,	.	.	.	.	.	.	.
16[d#	_	.	.	.	.	.	.	.
8.d#]	_	.	.	.	.	.	.	.
16[d#	mer	.	.	.	.	.	.	.
=14	=14	=14	=14	=14	=14	=14	=14	=14
16d#]	_	2r	.	1EMM	E:maj7 (E G# B D#)	.	.	voice
8B	cy,	.	.	.	.	.	.	.
16[B	mer	.	.	.	.	.	.	.
16B]	_	.	.	.	.	.	.	.
8G#	cy,	.	.	.	.	.	.	.
16[c#	me	.	.	.	.	.	.	.
8.c#]	_	8r	.	.	.	.	.	.
.	.	8[F#	Oh,	.	.	.	.	.
16[B	_	.	.	.	.	.	.	.
4B]	_	8.F#]	_	.	.	.	.	.
.	.	16[F#	mer	.	.	.	.	.
=15	=15	=15	=15	=15	=15	=15	=15	=15
4r	.	16F#]	_	1C#mm	C#:min7 (C# E G# B)	.	.	voice
.	.	8E	cy.	.	.	.	.	.
.	.	16r	.	.	.	.	.	.
4r	.	4r	.	.	.	.	.	.
8r	.	2r	.	.	.	.	.	.
8[d#	Oh,	.	.	.	.	.	.	.
8.d#]	_	.	.	.	.	.	.	.
16[d#	things	.	.	.	.	.	.	.
=16	=16	=16	=16	=16	=16	=16	=16	=16
16d#]	_	2r	.	1C#mm	C#:min7 (C# E G# B)	.	.	voice
8B	ain't	.	.	.	.	.	.	.
16[B	what	.	.	.	.	.	.	.
16B]	_	.	.	.	.	.	.	.
8G#	they	.	.	.	.	.	.	.
16[G#	used	.	.	.	.	.	.	.
16G#]	_	4r	.	.	.	.	.	.
8E	to	.	.	.	.	.	.	.
16[E	be,	.	.	.	.	.	.	.
16E]	_	16r	.	.	.	.	.	.
8.[c#	no,	8E	(vocalizing)	.	.	.	.	.
.	.	16[F#	_	.	.	.	.	.
=17	=17	=17	=17	=17	=17	=17	=17	=17
8.c#]	_	16F#]	_	1F#mm	F#:min7 (F# A C# E)	newline	41.528	voice
.	.	8E	_	.	.	.	.	.
16B	no	16[F#	_	.	.	.	.	.
16G#	_	8.F#]	_	.	.	.	.	.
8.r	.	.	.	.	.	.	.	.
.	.	16G#	_	.	.	.	.	.
8r	.	4r	.	.	.	.	.	.
8[c#	Oil	.	.	.	.	.	.	.
8.c#]	_	16r	.	.	.	.	.	.
.	.	8F#	Have	.	.	.	.	.
16[B	was	16[F#	mer	.	.	.	.	.
=18	=18	=18	=18	=18	=18	=18	=18	=18
16B]	_	16F#]	_	1F#mm	F#:min7 (F# A C# E)	.	.	voice
8G#	ted	8E	cy.	.	.	.	.	.
16[G#	on	16r	.	.	.	.	.	.
16G#]	_	4r	.	.	.	.	.	.
8A	the	.	.	.	.	.	.	.
16[G#	o	.	.	.	.	.	.	.
16G#]	_	2r	.	.	.	.	.	.
8F#	cean,	.	.	.	.	.	.	.
16r	.	.	.	.	.	.	.	.
16E	and	.	.	.	.	.	.	.
8F#	u-	.	.	.	.	.	.	.
16[G#	-pon	.	.	.	.	.	.	.
=19	=19	=19	=19	=19	=19	=19	=19	=19
16G#]	_	1r	.	1BM	B:sus4(b7) (B E F# A)	.	.	voice
8.[B	our	.	.	.	.	.	.	.
16B]	_	.	.	.	.	.	.	.
8.G#	seas,	.	.	.	.	.	.	.
8r	.	.	.	.	.	.	.	.
8A	fish	.	.	.	.	.	.	.
8G#	full	.	.	.	.	.	.	.
16F#	of	.	.	.	.	.	.	.
16[G#	mer	.	.	.	.	.	.	.
=20	=20	=20	=20	=20	=20	=20	=20	=20
16G#]	_	1r	.	1BM	B:sus4(b7) (B E F# A)	.	.	voice
8E	cu-	.	.	.	.	.	.	.
16E	-ry	.	.	.	.	.	.	.
8C#	_	.	.	.	.	.	.	.
8r	.	.	.	.	.	.	.	.
8r	.	.	.	.	.	.	.	.
8[e	Oh	.	.	.	.	.	.	.
8.e]	_	.	.	.	.	.	.	.
16[d#	_	.	.	.	.	.	.	.
=21	=21	=21	=21	=21	=21	=21	=21	=21
*	*	*	*	*>B_verse	*>B_verse	*>B_verse	*>B_verse	*>B_verse
4.d#]	...	1r	.	1EMM	E:maj7 (E G# B D#)	newline	51.876	voice
8r	.	.	.	.	.	.	.	.
8r	.	.	.	.	.	.	.	.
8[d#	Oh,	.	.	.	.	.	.	.
8.d#]	_	.	.	.	.	.	.	.
16[d#	mer	.	.	.	.	.	.	.
=22	=22	=22	=22	=22	=22	=22	=22	=22
16d#]	_	2r	.	1EMM	E:maj7 (E G# B D#)	.	.	voice
8B	cy,	.	.	.	.	.	.	.
16[B	mer	.	.	.	.	.	.	.
16B]	_	.	.	.	.	.	.	.
8G#	cy,	.	.	.	.	.	.	.
16[c#	me	.	.	.	.	.	.	.
8.c#]	_	8r	.	.	.	.	.	.
.	.	8G#	(vocalizing)	.	.	.	.	.
16[B	_	.	.	.	.	.	.	.
4B_	_	16F#	_	.	.	.	.	.
.	.	16G#	_	.	.	.	.	.
.	.	16F#	_	.	.	.	.	.
.	.	16[F#	_	.	.	.	.	.
=23	=23	=23	=23	=23	=23	=23	=23	=23
8B]	_	16F#]	_	1C#mm	C#:min7 (C# E G# B)	.	.	voice
.	.	8E	_	.	.	.	.	.
8r	.	.	.	.	.	.	.	.
.	.	16[F#	_	.	.	.	.	.
4r	.	16F#]	_	.	.	.	.	.
.	.	8G#	_	.	.	.	.	.
.	.	16r	.	.	.	.	.	.
8r	.	2r	.	.	.	.	.	.
8[d#	Oh,	.	.	.	.	.	.	.
8.d#]	_	.	.	.	.	.	.	.
16[d#	things	.	.	.	.	.	.	.
=24	=24	=24	=24	=24	=24	=24	=24	=24
16d#]	_	2r	.	1C#mm	C#:min7 (C# E G# B)	.	.	voice
8B	ain't	.	.	.	.	.	.	.
16[B	what	.	.	.	.	.	.	.
16B]	_	.	.	.	.	.	.	.
8G#	they	.	.	.	.	.	.	.
16[G#	used	.	.	.	.	.	.	.
16G#]	_	4r	.	.	.	.	.	.
8E	to	.	.	.	.	.	.	.
16[E	be,	.	.	.	.	.	.	.
16E]	_	16r	.	.	.	.	.	.
8.[c#	no,	8G#	Oh,	.	.	.	.	.
.	.	16[F#	help	.	.	.	.	.
=25	=25	=25	=25	=25	=25	=25	=25	=25
8.c#]	_	16F#]	_	1F#mm	F#:min7 (F# A C# E)	newline	62.107	voice
.	.	8E	us,	.	.	.	.	.
16B	no	16[F#	Fa	.	.	.	.	.
16G#	_	16F#]	_	.	.	.	.	.
8.r	.	16G#	ther.	.	.	.	.	.
.	.	8r	.	.	.	.	.	.
8r	.	2r	.	.	.	.	.	.
8[c#	Ra	.	.	.	.	.	.	.
8c#]	_	.	.	.	.	.	.	.
16B	di-	.	.	.	.	.	.	.
16[G#	-a	.	.	.	.	.	.	.
=26	=26	=26	=26	=26	=26	=26	=26	=26
16G#]	_	1r	.	1F#mm	F#:min7 (F# A C# E)	.	.	voice
8A	tion	.	.	.	.	.	.	.
16[G#	un	.	.	.	.	.	.	.
16G#]	_	.	.	.	.	.	.	.
8A	der-	.	.	.	.	.	.	.
16[B	-ground	.	.	.	.	.	.	.
8B]	_	.	.	.	.	.	.	.
16B	and	.	.	.	.	.	.	.
16[B	in	.	.	.	.	.	.	.
16B]	_	.	.	.	.	.	.	.
8.[c#	the	.	.	.	.	.	.	.
=27	=27	=27	=27	=27	=27	=27	=27	=27
8.c#]	_	1r	.	1BM	B:sus4(b7) (B E F# A)	.	.	voice
16[G#	sky,	.	.	.	.	.	.	.
16G#]	_	.	.	.	.	.	.	.
16r	.	.	.	.	.	.	.	.
8[G#	a	.	.	.	.	.	.	.
8G#]	_	.	.	.	.	.	.	.
16A	ni-	.	.	.	.	.	.	.
16[G#	-mals	.	.	.	.	.	.	.
16G#]	_	.	.	.	.	.	.	.
8A	and	.	.	.	.	.	.	.
16[G#	birds	.	.	.	.	.	.	.
=28	=28	=28	=28	=28	=28	=28	=28	=28
16G#]	_	2r	.	1BM	B:sus4(b7) (B E F# A)	.	.	voice
8A	who	.	.	.	.	.	.	.
16[B	live	.	.	.	.	.	.	.
16B]	_	.	.	.	.	.	.	.
8B	near-	.	.	.	.	.	.	.
16[G#	-by	.	.	.	.	.	.	.
16G#]	_	8r	.	.	.	.	.	.
8.[G#	are	.	.	.	.	.	.	.
.	.	16E	(vocalizing)	.	.	.	.	.
.	.	16[F#	_	.	.	.	.	.
8.G#]	_	16F#]	_	.	.	.	.	.
.	.	8.G#	_	.	.	.	.	.
16E	dy-	.	.	.	.	.	.	.
=29	=29	=29	=29	=29	=29	=29	=29	=29
*	*	*	*	*>B_verse	*>B_verse	*>B_verse	*>B_verse	*>B_verse
16C#	-ing.	8F#	Help	1EMM	E:maj7 (E G# B D#)	newline	72.356	voice
8.r	.	.	.	.	.	.	.	.
.	.	16E	us,	.	.	.	.	.
.	.	16[F#	Fa	.	.	.	.	.
4r	.	16F#]	_	.	.	.	.	.
.	.	8G#	ther.	.	.	.	.	.
.	.	16r	.	.	.	.	.	.
8r	.	8r	.	.	.	.	.	.
8[d#	Oh,	8[G#	(vocalizing)	.	.	.	.	.
8.d#]	_	8.G#]	_	.	.	.	.	.
16[d#	mer	16B	_	.	.	.	.	.
=30	=30	=30	=30	=30	=30	=30	=30	=30
16d#]	_	8r	.	1EMM	E:maj7 (E G# B D#)	.	.	voice
8B	cy,	.	.	.	.	.	.	.
.	.	16r	.	.	.	.	.	.
16[B	mer	16G#	_	.	.	.	.	.
16B]	_	8r	.	.	.	.	.	.
8G#	cy,	.	.	.	.	.	.	.
.	.	16r	.	.	.	.	.	.
16[c#	me	16[F#	_	.	.	.	.	.
4c#_	_	4F#]	_	.	.	.	.	.
16c#]	_	4r	.	.	.	.	.	.
8.B	_	.	.	.	.	.	.	.
=31	=31	=31	=31	=31	=31	=31	=31	=31
4r	.	8F#	Help	1C#mm	C#:min7 (C# E G# B)	.	.	voice
.	.	16E	us,	.	.	.	.	.
.	.	16[F#	Fa	.	.	.	.	.
4r	.	16F#]	_	.	.	.	.	.
.	.	8G#	ther.	.	.	.	.	.
.	.	16r	.	.	.	.	.	.
8r	.	16r	.	.	.	.	.	.
.	.	8.[G#	Please	.	.	.	.	.
8[d#	Oh,	.	.	.	.	.	.	.
8.d#]	_	16G#]	_	.	.	.	.	.
.	.	8F#	have	.	.	.	.	.
16[d#	things	16[F#	mer	.	.	.	.	.
=32	=32	=32	=32	=32	=32	=32	=32	=32
16d#]	_	16F#]	_	1C#mm	C#:min7 (C# E G# B)	.	.	voice
8B	ain't	8E	cy.	.	.	.	.	.
16[B	what	16r	.	.	.	.	.	.
16B]	_	16r	.	.	.	.	.	.
8G#	they	8.[B	Mm	.	.	.	.	.
16r	.	.	.	.	.	.	.	.
8r	.	4B]	_	.	.	.	.	.
8[f#	used	.	.	.	.	.	.	.
4f#_	_	16r	.	.	.	.	.	.
.	.	8F#	(vocalizing)	.	.	.	.	.
.	.	16[F#	_	.	.	.	.	.
=33	=33	=33	=33	=33	=33	=33	=33	=33
4f#_	_	16F#]	_	1F#mm	F#:min7 (F# A C# E)	newline	82.512	voice
.	.	8F#	_	.	.	.	.	.
.	.	16[G#	_	.	.	.	.	.
16f#]	_	4G#_	_	.	.	.	.	.
8g#	to	.	.	.	.	.	.	.
16[e	be	.	.	.	.	.	.	.
8.e]	_	8.G#]	_	.	.	.	.	.
16r	.	16[F#	_	.	.	.	.	.
16r	.	16F#]	_	.	.	.	.	.
8.[c#	What	8F#	have	.	.	.	.	.
.	.	16[F#	mer	.	.	.	.	.
=34	=34	=34	=34	=34	=34	=34	=34	=34
8c#]	_	16F#]	_	1F#mm	F#:min7 (F# A C# E)	.	.	voice
.	.	8E	cy,	.	.	.	.	.
16B	a-	.	.	.	.	.	.	.
16[G#	-bout	16[E	(vocalizing)	.	.	.	.	.
16G#]	_	4E]	_	.	.	.	.	.
8A	this	.	.	.	.	.	.	.
16[G#	o	.	.	.	.	.	.	.
16G#]	_	16r	.	.	.	.	.	.
8A	ver-	8.[G#	(vocalizing)	.	.	.	.	.
16[B	-crow	.	.	.	.	.	.	.
8.B]	_	16G#]	_	.	.	.	.	.
.	.	8F#	_	.	.	.	.	.
16[c#	ded	16[F#	_	.	.	.	.	.
=35	=35	=35	=35	=35	=35	=35	=35	=35
16c#]	_	16F#]	_	1BM	B:sus4(b7) (B E F# A)	.	.	voice
8G#	land,	8.[E	_	.	.	.	.	.
16[B	how	.	.	.	.	.	.	.
16B]	_	4E]	_	.	.	.	.	.
8G#	much	.	.	.	.	.	.	.
16[G#	more	.	.	.	.	.	.	.
8G#]	_	8r	.	.	.	.	.	.
16A	a-	8[B	Please,	.	.	.	.	.
16[G#	-buse	.	.	.	.	.	.	.
16G#]	_	8.B]	_	.	.	.	.	.
8E	from	.	.	.	.	.	.	.
16E	man	16[c#	have	.	.	.	.	.
=36	=36	=36	=36	=36	=36	=36	=36	=36
16C#	_	16c#]	_	1BM	B:sus4(b7) (B E F# A)	.	.	voice
8.r	.	8G#	mer-	.	.	.	.	.
.	.	16[F#	-cy	.	.	.	.	.
8.G#	can	8F#]	...	.	.	.	.	.
.	.	8r	.	.	.	.	.	.
16[G#	she	.	.	.	.	.	.	.
8G#]	_	2r	.	.	.	.	.	.
16E	stand?	.	.	.	.	.	.	.
16C#	_	.	.	.	.	.	.	.
8r	.	.	.	.	.	.	.	.
8e	Woo	.	.	.	.	.	.	.
=37	=37	=37	=37	=37	=37	=37	=37	=37
*	*	*	*	*>B_verse	*>B_verse	*>B_verse	*>B_verse	*>B_verse
1[d#	_	4r	.	1EMM	E:maj7 (E G# B D#)	newline	92.823	voice
.	.	8r	.	.	.	.	.	.
.	.	8[d#	Oh,	.	.	.	.	.
.	.	4d#_	_	.	.	.	.	.
.	.	8.d#]	_	.	.	.	.	.
.	.	16[c#	no,	.	.	.	.	.
=38	=38	=38	=38	=38	=38	=38	=38	=38
4d#]	...	2.c#]	_	1EMM	E:maj7 (E G# B D#)	.	.	voice
4r	.	.	.	.	.	.	.	.
8r	.	.	.	.	.	.	.	.
8[e	Ooh	.	.	.	.	.	.	.
16e]	_	4[c#	no,	.	.	.	.	.
8.[d#	_	.	.	.	.	.	.	.
=39	=39	=39	=39	=39	=39	=39	=39	=39
2d#]	...	16c#]	_	1C#mm	C#:min7 (C# E G# B)	.	.	voice
.	.	8.[G#	no,,	.	.	.	.	.
.	.	8.G#]	_	.	.	.	.	.
.	.	16[F#	no,	.	.	.	.	.
8r	.	8.F#]	_	.	.	.	.	.
8[c#	(vocalizing)	.	.	.	.	.	.	.
.	.	16[G#	no,	.	.	.	.	.
8.c#]	_	8.G#]	_	.	.	.	.	.
16[B	_	16[E	no	.	.	.	.	.
=40	=40	=40	=40	=40	=40	=40	=40	=40
16B]	_	16E]	_	1C#mm	C#:min7 (C# E G# B)	.	.	voice
8.[G#	_	8.C#	...	.	.	.	.	.
4G#]	_	2.r	.	.	.	.	.	.
16r	.	.	.	.	.	.	.	.
8.[f#	No,	.	.	.	.	.	.	.
4f#_	_	.	.	.	.	.	.	.
=41	=41	=41	=41	=41	=41	=41	=41	=41
16f#]	_	1r	.	1F#mm	F#:min7 (F# A C# E)	newline	103.119	voice
8.[g#	no,	.	.	.	.	.	.	.
8.g#]	_	.	.	.	.	.	.	.
16[e	no,	.	.	.	.	.	.	.
8e]	_	.	.	.	.	.	.	.
8[f#	no,	.	.	.	.	.	.	.
16f#]	_	.	.	.	.	.	.	.
8.c#	no...	.	.	.	.	.	.	.
=42	=42	=42	=42	=42	=42	=42	=42	=42
8r	.	1r	.	1F#mm	F#:min7 (F# A C# E)	.	.	voice
16r	.	.	.	.	.	.	.	.
16[c#	My,	.	.	.	.	.	.	.
8.c#]	_	.	.	.	.	.	.	.
16[B	my,	.	.	.	.	.	.	.
4B_	_	.	.	.	.	.	.	.
8B]	_	.	.	.	.	.	.	.
16G#	_	.	.	.	.	.	.	.
16F#	_	.	.	.	.	.	.	.
=43	=43	=43	=43	=43	=43	=43	=43	=43
8.G#	oh,	1r	.	1BM	B:sus4(b7) (B E F# A)	.	.	voice
16[B	my!	.	.	.	.	.	.	.
4B]	_	.	.	.	.	.	.	.
8r	.	.	.	.	.	.	.	.
16r	.	.	.	.	.	.	.	.
16[B	(Vocalizing)	.	.	.	.	.	.	.
16B]	_	.	.	.	.	.	.	.
8G#	_	.	.	.	.	.	.	.
16[G#	_	.	.	.	.	.	.	.
=44	=44	=44	=44	=44	=44	=44	=44	=44
4G#]	_	1r	.	1BM	B:sus4(b7) (B E F# A)	.	.	voice
8.r	.	.	.	.	.	.	.	.
16[f#	Wee	.	.	.	.	.	.	.
8.f#]	_	.	.	.	.	.	.	.
16[e	_	.	.	.	.	.	.	.
4e]	...	.	.	.	.	.	.	.
=45	=45	=45	=45	=45	=45	=45	=45	=45
*F:	*	*F:	*	*>C_solo	*>C_solo	*>C_solo	*>C_solo	*>C_solo
*	*	*	*	*F:	*F:	*F:	*F:	*F:
1r	.	1r	.	1FMM	F:maj7 (F A C E)	newline	113.34	saxophone
=46	=46	=46	=46	=46	=46	=46	=46	=46
1r	.	1r	.	1FMM	F:maj7 (F A C E)	.	.	saxophone
=47	=47	=47	=47	=47	=47	=47	=47	=47
1r	.	1r	.	1Dmm	D:min7 (D F A C)	.	.	saxophone
=48	=48	=48	=48	=48	=48	=48	=48	=48
1r	.	1r	.	1Dmm	D:min7 (D F A C)	.	.	saxophone
=49	=49	=49	=49	=49	=49	=49	=49	=49
1r	.	1r	.	1Gmm	G:min7 (G B- D F)	newline	123.674	saxophone
=50	=50	=50	=50	=50	=50	=50	=50	=50
1r	.	1r	.	1Gmm	G:min7 (G B- D F)	.	.	saxophone
=51	=51	=51	=51	=51	=51	=51	=51	=51
1r	.	1r	.	1CMm	C:sus4(b7) (C F G B-)	.	.	saxophone
=52	=52	=52	=52	=52	=52	=52	=52	=52
1r	.	1r	.	1CMm	C:sus4(b7) (C F G B-)	.	.	saxophone
=53	=53	=53	=53	=53	=53	=53	=53	=53
*b-:	*	*b-:	*	*>_fadeout	*>_fadeout	*>_fadeout	*>_fadeout	*>_fadeout
*	*	*	*	*b-:	*b-:	*b-:	*b-:	*b-:
1r	.	1r	.	1B-mm	B-:min9 (B- D- F A- C)	newline	133.981	saxophone
=54	=54	=54	=54	=54	=54	=54	=54	=54
1r	.	1r	.	1B-mm	B-:min9 (B- D- F A- C)	.	.	saxophone
=55	=55	=55	=55	=55	=55	=55	=55	=55
1r	.	1r	.	1B-mm	B-:min9 (B- D- F A- C)	.	.	saxophone
=56	=56	=56	=56	=56	=56	=56	=56	=56
1r	.	1r	.	1B-mm	B-:min9 (B- D- F A- C)	.	.	saxophone
=57	=57	=57	=57	=57	=57	=57	=57	=57
1r	.	1r	.	1B-mm	B-:min9 (B- D- F A- C)	.	.	saxophone
=58	=58	=58	=58	=58	=58	=58	=58	=58
1r	.	1r	.	1B-mm	B-:min9 (B- D- F A- C)	.	.	saxophone
=59	=59	=59	=59	=59	=59	=59	=59	=59
1r	.	1r	.	1B-mm	B-:min9 (B- D- F A- C)	.	.	saxophone
=60	=60	=60	=60	=60	=60	=60	=60	=60
1r	.	1r	.	1B-mm	B-:min9 (B- D- F A- C)	.	.	saxophone
r;	.	r;	.	1r;	r	.	.	r
*-	*-	*-	*-	*-	*-	*-	*-	*-
!!!BillboardChartDate: 1971/08/07
!!!BillboardPeak: 4
!!!BillboardWeeksOnChart: 12
!!!COC: Marvin Gaye
!!!ENC: Nathaniel Condit-Schultz
!!!EST: Awating manual error checking and editing.
!!!OTL: Mercy Mercy Me (The Ecology)
!!!RDF**chordsym: original McGill chord annotation + (implied pitch class set, with bass pitch in first position)
!!!RDF**harmony: **recip + pitch class of root + harmonic quality
!!!RDF**leadinstrument: original McGill primary instrumentation annotation
!!!RDF**phrase: newline = linebreak in original McGill transcription
!!!RDF**timestamp: McGill audio timestamp in seconds
!!!RDT: 2017/01/12/
!!!SampleActualRank: 10
!!!SampleID#: 0819
!!!SampleTargetRank: 10
